src/16/actions/dialog-fill-and-stroke.svg

<svg xmlns="http://www.w3.org/2000/svg" width="16" height="16" version="1.1" viewBox="0 0 16 16">
 <defs>
  <style id="current-color-scheme" type="text/css">
   .ColorScheme-Text { color:#565656; } .ColorScheme-Highlight { color:#5294e2; }
  </style>
 </defs>
 <path style="fill:currentColor" class="ColorScheme-Text" d="M 14.996094 1.0058594 C 14.821638 0.8000921 9.0326826 5.688777 6.8828125 8.1171875 C 7.4414213 8.2598092 7.9945975 8.5388413 8.3867188 9.0761719 C 8.4910496 9.2191385 8.5750299 9.3872587 8.65625 9.5566406 C 10.977707 7.0201738 15.155313 1.1918476 14.996094 1.0058594 z M 6.1503906 9 C 5.120145 9.0306611 4.135565 9.8674859 3.4511719 11.628906 C 2.6680534 13.641957 1.2712264 14.447637 1 14.398438 C 2.3874097 14.937336 6.4799394 16.273694 7.8300781 11.662109 C 8.1591856 10.879405 7.975745 10.206252 7.5800781 9.6640625 C 7.2706834 9.2400934 6.7483789 9.0555723 6.1503906 9 z"/>
</svg>

<svg xmlns="http://www.w3.org/2000/svg" width="16" height="16"><defs><style id="current-color-scheme" type="text/css"></style></defs><path d="M14.996 1.006C14.822.8 9.033 5.689 6.883 8.117c.558.143 1.112.422 1.504.96.104.142.188.31.27.48 2.32-2.537 6.498-8.365 6.34-8.551zM6.15 9c-1.03.03-2.014.867-2.699 2.629-.783 2.013-2.18 2.819-2.451 2.77 1.387.538 5.48 1.875 6.83-2.737.33-.783.146-1.456-.25-1.998-.31-.424-.832-.608-1.43-.664z" fill="currentColor" color="#565656"/></svg>
